X: 2
T: Orig Crooked Bawbee, The
M: 3/4
L: 1/8
R: waltz
K: Gmaj
B2A | G3 B d2 | g3 f e2 | d3 A c2 | c B3 d2 |
G3 B d2 | c2 e2 g2 | B3 c A2 | G4 D2 |
B3 A G2 | G3 A B2 | c3 d e2 | d B3 d2 |
g3 c e2 | d4 GA | B3 c A2 | G4 D2 |
B3 A B2 | c3B c2 | f3 e d2 | d B3 G2 |
G3 F G2 | G3 F G2 | B3 A G2 | A4 GA |
B3 A B2 | c3 B c2 | f3 e d2 | d B3 G |
E G3 G2 | D G3 G2 | F G3 F2 | G4 |]

